X:1
T:Silver Spear (reel), The
R: reel
M:4/4
L:1/8
O:Trad. (25.11.2015/NS)
K:Dmaj
AG |: "D"    FAA2 BAFA | dfed "G" BcdA | "D" FA~A2        BAFA |      dfed "A" B2A2 |
      "D"    FAA2 BAFA | dfed     Bdef | "G" ~g3e  "D/F#" ~f3e | "Em" dfed "A" B2A2 :|
|:    "D"    faaf bfaf | gfed     Bcde | "Em" faaf        bfaf |      gfed    ~B2A2 |
      "D/F#" faaf bfaf | gfed     Bdef | "G" ~g3e  "D/F#" ~f3e | "Em" dfed "A" B2A2 :|
